svg/u1f4f8.svg

<svg viewBox="0 0 128 128" xmlns="http://www.w3.org/2000/svg">
  <g>
    <path d="M25.24,39.27H12.99c-1.63,0-2.95-1.32-2.95-2.95V29.1c0-1.63,1.32-2.95,2.95-2.95h12.25 c1.63,0,2.95,1.32,2.95,2.95v7.22C28.18,37.95,26.86,39.27,25.24,39.27z" fill="#90A4AE"/>
    <path d="M16.28,40.52h-4v-10.4c0-1.1,0.9-2,2-2h0c1.1,0,2,0.9,2,2V40.52z" fill="#94D1E0"/>
    <path d="M42.36,35.8h-5.51c-1.1,0-1.99-0.89-1.99-1.99V28.3c0-1.1,0.53-1.58,1.99-1.99 c1.46-0.41,4.12-0.46,5.51,0c1.14,0.38,1.99,0.89,1.99,1.99v5.51C44.35,34.91,43.45,35.8,42.36,35.8z" fill="#546E7A"/>
    <rect height="60.14" fill="#212121" width="120" x="4" y="58.9"/>
    <path d="M4,117.68v2.73c0,1.98,1.61,3.59,3.59,3.59h112.83c1.98,0,3.59-1.61,3.59-3.59v-2.73H4z" fill="#B0BEC5"/>
    <path d="M43.34,40.55h-7.49c-2.44,0-4.42-1.98-4.42-4.42v-0.65c0-2.44,1.98-4.42,4.42-4.42h7.49 c2.44,0,4.42,1.98,4.42,4.42v0.65C47.77,38.57,45.79,40.55,43.34,40.55z" fill="#90A4AE"/>
    <path d="M121.73,34.16H8.05C5.81,34.16,4,35.97,4,38.21v21.72h120v-23.5 C124,35.17,122.98,34.16,121.73,34.16z" fill="#B0BEC5"/>
    <path d="M112.49,55.24H94.34c-1.06,0-1.92-0.86-1.92-1.92V40.67c0-1.06,0.86-1.92,1.92-1.92h18.15 c1.06,0,1.92,0.86,1.92,1.92v12.66C114.41,54.38,113.56,55.24,112.49,55.24z" fill="#78909C"/>
    <path d="M92.42,52.84V40.88c0-1.18,0.95-2.13,2.13-2.13h17.79c1,0,1.41,0.55,1.41,0.55L93.11,54.72 C93.11,54.72,92.42,54.3,92.42,52.84z" fill="#757575"/>
    <rect height="10.47" fill="#212121" width="13.95" x="96.44" y="41.76"/>
    <path d="M10.58,115.87H5.7c-0.94,0-1.7-0.76-1.7-1.7V68.28c0-0.94,0.76-1.7,1.7-1.7h4.88 c0.94,0,1.7,0.76,1.7,1.7v45.89C12.28,115.11,11.51,115.87,10.58,115.87z" fill="#616161"/>
    <path d="M122.28,115.87h-4.88c-0.94,0-1.7-0.76-1.7-1.7V68.28c0-0.94,0.76-1.7,1.7-1.7h4.88 c0.94,0,1.7,0.76,1.7,1.7v45.89C123.98,115.11,123.22,115.87,122.28,115.87z" fill="#616161"/>
    <path d="M8.04,122.64L8.04,122.64c-1.1,0-2-0.9-2-2v-2.44h4v2.44C10.04,121.74,9.15,122.64,8.04,122.64z" fill="#B9E4EA"/>
    <path d="M121.86,58.52h-4v-20.4c0-1.1,0.9-2,2-2h0c1.1,0,2,0.9,2,2V58.52z" fill="#B9E4EA"/>
    <path d="M11.16,58.52h-4v-20.4c0-1.1,0.9-2,2-2h0c1.1,0,2,0.9,2,2V58.52z" fill="#B9E4EA"/>
    <path d="M119.86,122.64L119.86,122.64c-1.1,0-2-0.9-2-2v-2.44h4v2.44 C121.86,121.74,120.97,122.64,119.86,122.64z" fill="#B9E4EA"/>
    <ellipse cx="72.39" cy="88.31" rx="32.79" ry="32.79" fill="#616161"/>
    <ellipse cx="72.39" cy="88.31" rx="28.47" ry="28.47" fill="#E0E0E0"/>
    <ellipse cx="72.39" cy="88.31" rx="20.33" ry="20.33" fill="#2F7889"/>
    <ellipse cx="72.39" cy="88.31" rx="26.16" ry="26.16"/>
    <ellipse cx="72.39" cy="88.31" rx="19.94" ry="19.94" fill="#2F7889"/>
    <path d="M67.67,71.58c-6.31,1.43-10.08,7.57-10.08,12.1c0,3.67,2.43,2.75,3.21,1.42 c2.01-3.41,4.44-6.25,8.63-7.44c1.68-0.48,3.64-1.53,3.44-3.49C72.59,71.38,69.82,71.09,67.67,71.58z" fill="#94D1E0"/>
    <ellipse cx="72.39" cy="88.31" rx="8.9" ry="8.9" opacity="0.25"/>
    <path d="M41.89,46.73c-0.45-0.08-0.55-0.68-0.16-0.9l12.99-6.56c2.41-1.37,2.62-2.04,1.83-4.17l-7.67-22.22 c-0.16-0.47,0.4-0.85,0.78-0.53l16.91,14.32c3.17,2.56,4.22,1.49,5.09-0.02l9.37-16.57c0.25-0.41,0.88-0.26,0.91,0.23l0.07,16.65 c-0.07,3.21,1.3,2.62,5.77,1.47l14.49-4.05c0.48-0.14,0.83,0.44,0.49,0.8L86.82,41.76c-1.03,1.32-0.92,1.74-0.48,3.57l3.23,9.39 c0.12,0.35-0.18,0.71-0.55,0.64l-10.77-3.13c-1.61-0.28-2.4-0.28-3.42,1.38L67.22,66c-0.25,0.3-0.92,0.63-1.13,0.02l-4.04-14.37 c-0.51-1.67-1.21-1.7-2.93-2.02L41.89,46.73z" fill="#FF8F00"/>
    <polygon points="52.07,44.84 64.82,40.55 55.15,21.29 70.5,36.12 77.56,23.43 76.73,37.46 91.26,32.01 80.08,42.77 84.5,50.36 74.5,47.32 67.89,58.96 65.84,46.31 " fill="#FFEE58"/>
  </g>
</svg>

<svg viewBox="0 0 128 128" xmlns="http://www.w3.org/2000/svg">
  <defs/>
  <path d="M25.24,39.27 L12.99,39.27 C11.36,39.27 10.04,37.95 10.04,36.32 L10.04,29.1 C10.04,27.47 11.36,26.15 12.99,26.15 L25.24,26.15 C26.87,26.15 28.19,27.47 28.19,29.1 L28.19,36.32 C28.18,37.95 26.86,39.27 25.24,39.27 Z" fill="#90A4AE"/>
  <path d="M16.28,40.52 L12.28,40.52 L12.28,30.12 C12.28,29.02 13.18,28.12 14.28,28.12 L14.28,28.12 C15.38,28.12 16.28,29.02 16.28,30.12 L16.28,40.52 Z" fill="#94D1E0"/>
  <path d="M42.36,35.8 L36.85,35.8 C35.75,35.8 34.86,34.91 34.86,33.81 L34.86,28.3 C34.86,27.2 35.39,26.72 36.85,26.31 C38.31,25.9 40.97,25.85 42.36,26.31 C43.5,26.69 44.35,27.2 44.35,28.3 L44.35,33.81 C44.35,34.91 43.45,35.8 42.36,35.8 Z" fill="#546E7A"/>
  <path d="M4,58.9 L124,58.9 L124,119.04 L4,119.04 L4,58.9 Z" fill="#212121"/>
  <path d="M4,117.68 L4,120.41 C4,122.39 5.61,124 7.59,124 L120.42,124 C122.4,124 124.01,122.39 124.01,120.41 L124.01,117.68 L4,117.68 Z" fill="#B0BEC5"/>
  <path d="M43.34,40.55 L35.85,40.55 C33.41,40.55 31.43,38.57 31.43,36.13 L31.43,35.48 C31.43,33.04 33.41,31.06 35.85,31.06 L43.34,31.06 C45.78,31.06 47.76,33.04 47.76,35.48 L47.76,36.13 C47.77,38.57 45.79,40.55 43.34,40.55 Z" fill="#90A4AE"/>
  <path d="M121.73,34.16 L8.05,34.16 C5.81,34.16 4,35.97 4,38.21 L4,59.93 L124,59.93 L124,36.43 C124,35.17 122.98,34.16 121.73,34.16 Z" fill="#B0BEC5"/>
  <path d="M112.49,55.24 L94.34,55.24 C93.28,55.24 92.42,54.38 92.42,53.32 L92.42,40.67 C92.42,39.61 93.28,38.75 94.34,38.75 L112.49,38.75 C113.55,38.75 114.41,39.61 114.41,40.67 L114.41,53.33 C114.41,54.38 113.56,55.24 112.49,55.24 Z" fill="#78909C"/>
  <path d="M92.42,52.84 L92.42,40.88 C92.42,39.7 93.37,38.75 94.55,38.75 L112.34,38.75 C113.34,38.75 113.75,39.3 113.75,39.3 L93.11,54.72 C93.11,54.72 92.42,54.3 92.42,52.84 Z" fill="#757575"/>
  <path d="M96.44,41.76 L110.39,41.76 L110.39,52.23 L96.44,52.23 L96.44,41.76 Z" fill="#212121"/>
  <path d="M10.58,115.87 L5.7,115.87 C4.76,115.87 4,115.11 4,114.17 L4,68.28 C4,67.34 4.76,66.58 5.7,66.58 L10.58,66.58 C11.52,66.58 12.28,67.34 12.28,68.28 L12.28,114.17 C12.28,115.11 11.51,115.87 10.58,115.87 Z" fill="#616161"/>
  <path d="M122.28,115.87 L117.4,115.87 C116.46,115.87 115.7,115.11 115.7,114.17 L115.7,68.28 C115.7,67.34 116.46,66.58 117.4,66.58 L122.28,66.58 C123.22,66.58 123.98,67.34 123.98,68.28 L123.98,114.17 C123.98,115.11 123.22,115.87 122.28,115.87 Z" fill="#616161"/>
  <path d="M8.04,122.64 L8.04,122.64 C6.94,122.64 6.04,121.74 6.04,120.64 L6.04,118.2 L10.04,118.2 L10.04,120.64 C10.04,121.74 9.15,122.64 8.04,122.64 Z" fill="#B9E4EA"/>
  <path d="M121.86,58.52 L117.86,58.52 L117.86,38.12 C117.86,37.02 118.76,36.12 119.86,36.12 L119.86,36.12 C120.96,36.12 121.86,37.02 121.86,38.12 L121.86,58.52 Z" fill="#B9E4EA"/>
  <path d="M11.16,58.52 L7.16,58.52 L7.16,38.12 C7.16,37.02 8.06,36.12 9.16,36.12 L9.16,36.12 C10.26,36.12 11.16,37.02 11.16,38.12 L11.16,58.52 Z" fill="#B9E4EA"/>
  <path d="M119.86,122.64 L119.86,122.64 C118.76,122.64 117.86,121.74 117.86,120.64 L117.86,118.2 L121.86,118.2 L121.86,120.64 C121.86,121.74 120.97,122.64 119.86,122.64 Z" fill="#B9E4EA"/>
  <path d="M105.18,88.31 A32.79 32.79 0 1 1 39.6,88.31 A32.79 32.79 0 1 1 105.18,88.31 Z" fill="#616161"/>
  <path d="M100.86,88.31 A28.47 28.47 0 1 1 43.92,88.31 A28.47 28.47 0 1 1 100.86,88.31 Z" fill="#E0E0E0"/>
  <path d="M92.72,88.31 A20.33 20.33 0 1 1 52.06,88.31 A20.33 20.33 0 1 1 92.72,88.31 Z" fill="#2F7889"/>
  <path d="M98.55,88.31 A26.16 26.16 0 1 1 46.23,88.31 A26.16 26.16 0 1 1 98.55,88.31 Z"/>
  <path d="M92.33,88.31 A19.94 19.94 0 1 1 52.45,88.31 A19.94 19.94 0 1 1 92.33,88.31 Z" fill="#2F7889"/>
  <path d="M67.67,71.58 C61.36,73.01 57.59,79.15 57.59,83.68 C57.59,87.35 60.02,86.43 60.8,85.1 C62.81,81.69 65.24,78.85 69.43,77.66 C71.11,77.18 73.07,76.13 72.87,74.17 C72.59,71.38 69.82,71.09 67.67,71.58 Z" fill="#94D1E0"/>
  <path d="M81.29,88.31 A8.9 8.9 0 1 1 63.49,88.31 A8.9 8.9 0 1 1 81.29,88.31 Z" opacity="0.25"/>
  <path d="M41.89,46.73 C41.44,46.65 41.34,46.05 41.73,45.83 L54.72,39.27 C57.13,37.9 57.34,37.23 56.55,35.1 L48.88,12.88 C48.72,12.41 49.28,12.03 49.66,12.35 L66.57,26.67 C69.74,29.23 70.79,28.16 71.66,26.65 L81.03,10.08 C81.28,9.67 81.91,9.82 81.94,10.31 L82.01,26.96 C81.94,30.17 83.31,29.58 87.78,28.43 L102.27,24.38 C102.75,24.24 103.1,24.82 102.76,25.18 L86.82,41.76 C85.79,43.08 85.9,43.5 86.34,45.33 L89.57,54.72 C89.69,55.07 89.39,55.43 89.02,55.36 L78.25,52.23 C76.64,51.95 75.85,51.95 74.83,53.61 L67.22,66 C66.97,66.3 66.3,66.63 66.09,66.02 L62.05,51.65 C61.54,49.98 60.84,49.95 59.12,49.63 L41.89,46.73 Z" fill="#FF8F00"/>
  <path d="M52.07,44.84 L64.82,40.55 L55.15,21.29 L70.5,36.12 L77.56,23.43 L76.73,37.46 L91.26,32.01 L80.08,42.77 L84.5,50.36 L74.5,47.32 L67.89,58.96 L65.84,46.31 Z" fill="#FFEE58"/>
</svg>
